home_FILL0_wght400_GRAD0_opsz48.svg

<svg width="48" height="48" viewBox="0 0 48 48" fill="none" xmlns="http://www.w3.org/2000/svg">
<path d="M11 39H18.5V26.5H29.5V39H37V19.5L24 9.75L11 19.5V39ZM11 42C10.1667 42 9.45833 41.7083 8.875 41.125C8.29167 40.5417 8 39.8333 8 39V19.5C8 19.0333 8.10833 18.5833 8.325 18.15C8.54167 17.7167 8.83333 17.3667 9.2 17.1L22.2 7.35C22.4667 7.15 22.75 7 23.05 6.9C23.35 6.8 23.6667 6.75 24 6.75C24.3333 6.75 24.65 6.8 24.95 6.9C25.25 7 25.5333 7.15 25.8 7.35L38.8 17.1C39.1667 17.3667 39.4583 17.7167 39.675 18.15C39.8917 18.5833 40 19.0333 40 19.5V39C40 39.8333 39.7083 40.5417 39.125 41.125C38.5417 41.7083 37.8333 42 37 42H26.5V29.5H21.5V42H11Z" fill="#FF7E81"/>
</svg>

<svg xmlns="http://www.w3.org/2000/svg" height="48" width="48"><path fill="blue" d="M11 39h7.5V26.5h11V39H37V19.5L24 9.75 11 19.5Zm0 3q-1.25 0-2.125-.875T8 39V19.5q0-.7.325-1.35.325-.65.875-1.05l13-9.75q.4-.3.85-.45.45-.15.95-.15.5 0 .95.15.45.15.85.45l13 9.75q.55.4.875 1.05.325.65.325 1.35V39q0 1.25-.875 2.125T37 42H26.5V29.5h-5V42Zm13-17.65Z"/></svg>
